Optical/Fennia.svg

<?xml version="1.0" encoding="UTF-8"?>
<svg width="72px" height="48px" viewBox="0 0 72 48" version="1.1" xmlns="http://www.w3.org/2000/svg" xmlns:xlink="http://www.w3.org/1999/xlink">
    <!-- Generator: Sketch 52.3 (67297) - http://www.bohemiancoding.com/sketch -->
    <title>Optical/Fennia</title>
    <desc>Created with Sketch.</desc>
    <g id="Optical/Fennia" stroke="none" stroke-width="1" fill="none" fill-rule="evenodd">
        <path d="M60.8772288,16.6618289 C60.721682,17.4473179 60.5920597,18.2066239 60.4624375,18.9659299 L63.1845053,18.9659299 C63.2622787,18.9659299 63.2882032,18.939747 63.3141276,18.8611981 C63.4437499,18.101892 63.5733722,17.342586 63.7289189,16.6094629 C63.7548434,16.4523651 63.7029945,16.4785481 63.5992966,16.4785481 L61.0846244,16.4785481 C60.9290777,16.4785481 60.9031532,16.557097 60.8772288,16.6618289 Z M16.0797691,18.154258 C16.1056935,17.7876964 16.131618,17.3949519 16.131618,16.9236585 C16.0797691,16.3214503 16.0279201,15.745425 15.8982979,15.1693998 C15.509431,13.5984218 14.7316974,12.2369075 13.5132479,11.1634059 C12.8651365,10.5873806 12.1392518,10.1160872 11.3355936,9.7495257 C10.4023132,9.33059824 9.41718391,9.09495154 8.38020567,9.01640264 C7.78394319,8.96403671 7.1876807,9.04258561 6.59141822,9.17350044 C5.68406226,9.3567812 4.82855522,9.72334274 4.02489709,10.1946361 C3.22123896,10.6921125 2.52127865,11.2943207 1.89909171,12.0012608 C1.40652705,12.5772861 0.991735755,13.2318603 0.680642285,13.9388004 C0.239926535,14.9075701 0.0584553444,15.9287058 0.00660643268,16.9760245 C-0.0193180232,17.6044157 0.0325308885,18.2066239 0.136228712,18.8088321 C0.239926535,19.5419552 0.473246638,20.2488953 0.784340108,20.9034695 C1.09543358,21.5318607 1.48430042,22.1078859 1.95094062,22.6577282 C2.41758083,23.2075705 2.91014549,23.6788639 3.48048352,24.0977914 C3.86935035,24.411987 4.3100661,24.6476337 4.7248574,24.8832804 C4.77670631,24.9094633 4.82855522,24.9356463 4.82855522,25.0141952 L4.82855522,29.124921 C4.82855522,29.2820187 4.77670631,29.2558358 4.64708403,29.2558358 L2.05463844,29.2558358 C1.66577161,29.2296528 1.27690477,29.2558358 0.888037932,29.2558358 C0.784340108,29.2558358 0.758415652,29.2820187 0.758415652,29.3867506 L0.758415652,32.6072555 C0.810264564,32.6858044 0.888037932,32.6596214 0.939886843,32.6596214 L14.9131685,32.6596214 C14.9650175,32.6596214 15.0427908,32.6858044 15.0946397,32.6072555 L15.0946397,29.4652995 C15.0946397,29.3605676 15.0687153,29.3082017 14.939093,29.3082017 L11.2059714,29.3082017 C11.1022735,29.3082017 11.0504246,29.3082017 11.0504246,29.1772869 L11.0504246,25.14511 C11.0504246,25.0403782 11.1022735,24.9880122 11.1800469,24.9618293 C11.4652159,24.8570974 11.7503849,24.6999996 12.0355539,24.5429018 C12.9169854,24.0192425 13.7206436,23.3646683 14.368755,22.5529963 C14.8613196,21.9507881 15.2761109,21.243848 15.5612799,20.510725 C15.846449,19.7514189 16.0279201,18.9659299 16.0797691,18.154258 Z M28.9642236,25.4593056 C28.9642236,25.3545738 29.0160725,25.2498419 29.0160725,25.197476 C29.1456948,24.5952677 29.2493926,23.9668765 29.3790149,23.3384853 C29.4049394,23.2075705 29.3530905,23.2075705 29.2753171,23.2075705 L25.3088753,23.2075705 C25.2051775,23.2075705 25.1014797,23.2075705 25.1274041,23.0504727 C25.2570264,22.5268134 25.3347998,22.003154 25.4384976,21.4794947 C25.5940444,20.7201887 25.7495911,19.9870656 25.8792134,19.2277596 C25.9051378,19.0706618 25.9569867,19.0182959 26.1125335,19.0182959 L30.234522,19.0182959 C30.3900687,19.0182959 30.4159931,18.939747 30.4419176,18.8088321 C30.4937665,18.4422706 30.5974643,18.0757091 30.6493132,17.6829646 C30.7011622,17.316403 30.8307844,16.9236585 30.8307844,16.530914 C30.7789355,16.4785481 30.7011622,16.5047311 30.6493132,16.5047311 L23.4941634,16.5047311 C23.4423145,16.5047311 23.3645412,16.4785481 23.3126922,16.557097 C23.2608433,16.8189267 23.2349189,17.0807563 23.18307,17.342586 C23.1571455,17.6044157 23.1052966,17.8662453 23.0534477,18.128075 C22.9497499,18.6517343 22.846052,19.2015766 22.7423542,19.7514189 C22.6386564,20.3274442 22.5349586,20.8772865 22.4312607,21.4533118 L22.1201673,23.0242897 C21.990545,23.7050469 21.8609227,24.411987 21.7313004,25.0927441 C21.6016782,25.7473183 21.4720559,26.4280754 21.3424336,27.1088325 C21.2387358,27.7372237 21.1350379,28.3656149 21.0054157,28.9940061 L20.6165488,31.0362775 C20.4869266,31.6123028 20.3832287,32.188328 20.2795309,32.7643533 L23.1571455,32.7643533 C23.2608433,32.7643533 23.3386167,32.7643533 23.3386167,32.6072555 C23.3386167,32.5287066 23.3386167,32.4501577 23.3645412,32.3716088 C23.5200879,31.6123028 23.6756346,30.8791797 23.8052569,30.1460566 C23.9608036,29.3867506 24.0904259,28.6536276 24.2200482,27.8943215 C24.3496705,27.2397474 24.5052172,26.5589902 24.608915,25.8782331 C24.6348395,25.6949523 24.6866884,25.6687694 24.8422351,25.6687694 L28.7309035,25.6687694 C28.8864502,25.6687694 28.9642236,25.6425864 28.9642236,25.4593056 Z M38.141481,24.5952677 C38.1674054,24.1501573 38.141481,23.6788639 37.9859342,23.2075705 C37.856312,22.6053623 37.571143,22.05552 37.0267294,21.6889584 C36.4563914,21.296214 35.8342044,21.1652991 35.186093,21.1391162 C34.7972262,21.1129332 34.4083593,21.1391162 34.0194925,21.1652991 C33.4491545,21.2176651 32.9047409,21.3747629 32.3862518,21.6104096 C31.5566692,22.003154 30.9863312,22.6577282 30.5456154,23.4694002 C30.182673,24.1501573 29.9493529,24.8832804 29.7678817,25.6425864 C29.4827127,26.7946369 29.2493926,27.9466875 29.1716193,29.124921 C29.1197703,29.7533121 29.1197703,30.3817033 29.2753171,30.9839116 C29.4308638,31.5599368 29.7160328,32.0835962 30.234522,32.4239747 C30.7270866,32.7643533 31.2974246,32.9214511 31.8936871,32.9476341 C32.4381007,32.973817 32.9825143,33 33.5269278,32.8952681 C33.993568,32.8167192 34.4083593,32.6596214 34.8231506,32.4763407 C35.2379419,32.2930599 35.5490354,32.0050473 35.8860533,31.7432176 C36.1452979,31.5337539 36.3526935,31.2457412 36.5341647,30.9577286 C36.9230316,30.3555204 37.1563517,29.7271292 37.3378229,29.0463721 C37.3637473,28.9416402 37.3118984,28.9416402 37.234125,28.9416402 L34.5898305,28.9416402 C34.5379816,28.9416402 34.5120572,28.9678232 34.4861327,29.0463721 C34.4342838,29.2820187 34.3824349,29.5438484 34.2787371,29.7794951 C34.1231903,30.1722396 33.9157947,30.5388011 33.5528523,30.7744478 C33.0343632,31.0886434 32.3603273,31.0100945 32.1529317,30.4078863 C32.0492339,30.0936907 31.9973849,29.7794951 32.0233094,29.4391165 C32.0492339,29.098738 32.0751583,28.7321765 32.1270072,28.3917979 L32.282554,27.6063089 L37.4674451,27.6063089 C37.5452185,27.6063089 37.6489163,27.6324919 37.7007652,27.553943 C37.7007652,27.52776 37.7266897,27.4753941 37.7266897,27.4230281 C37.7785386,27.0041007 37.8822364,26.5589902 37.9600098,26.1400628 C38.0637076,25.6164034 38.1155565,25.1189271 38.141481,24.5952677 Z M47.7594541,24.0716084 C47.8631519,23.600315 47.9409253,23.1290216 47.8631519,22.6839112 C47.7335296,21.9769711 47.2668894,21.5056777 46.5928536,21.296214 C46.1521378,21.1391162 45.6854976,21.1391162 45.2188574,21.2176651 C44.4929727,21.3223969 43.8707857,21.6889584 43.4041455,22.2649837 C43.3263722,22.3697156 43.2226743,22.4482645 43.1189765,22.5791793 C43.2226743,22.1602518 43.2745232,21.7936903 43.3522966,21.4271288 C43.3522966,21.4009458 43.3263722,21.4009458 43.3263722,21.4009458 L40.6302287,21.4009458 C40.5006065,21.4009458 40.474682,21.4794947 40.474682,21.5580436 C40.4487576,21.7413244 40.4228331,21.8984222 40.3969086,22.0817029 C40.2672864,22.6577282 40.1635885,23.2075705 40.0598907,23.7574128 L39.7487972,25.4069397 C39.6450994,25.9044161 39.5673261,26.3757095 39.4636282,26.8731858 C39.3599304,27.501577 39.2303081,28.1037853 39.1266103,28.7321765 C38.996988,29.3605676 38.8932902,29.9627759 38.7636679,30.5911671 L38.3748011,32.6334385 C38.3488766,32.7381703 38.3748011,32.7643533 38.4784989,32.7643533 L41.0709445,32.7643533 C41.1746423,32.7643533 41.2005668,32.7381703 41.2264912,32.6334385 C41.2783401,32.4763407 41.3042646,32.2930599 41.3301891,32.1097791 L41.6412825,30.4602522 C41.7449803,29.9104099 41.8486782,29.3343847 41.952376,28.7845424 C42.0560738,28.2347001 42.1597716,27.6586748 42.2634695,27.1088325 C42.3412428,26.6375391 42.4190162,26.1400628 42.522714,25.6687694 C42.6523363,25.0927441 42.7041852,24.5167188 42.9375053,23.9668765 C43.1189765,23.574132 43.3522966,23.2599364 43.7930124,23.1552046 C44.1300303,23.1028386 44.4411238,23.0766557 44.7003683,23.3646683 C44.855915,23.5217661 44.8818395,23.7312298 44.907764,23.9406936 C44.9336884,24.385804 44.8299906,24.8309144 44.7522172,25.2760249 C44.6485194,25.9044161 44.5188971,26.5066243 44.3892748,27.1350155 L44.0781814,28.7845424 C43.9226346,29.5438484 43.7930124,30.2769715 43.6374656,31.0362775 C43.5337678,31.5861198 43.43007,32.1621451 43.3263722,32.7381703 L46.04844,32.7381703 C46.1521378,32.7381703 46.1521378,32.6858044 46.1780623,32.6072555 C46.2039868,32.3977918 46.2558357,32.214511 46.2817601,32.0050473 C46.4373069,31.1410094 46.5928536,30.3031544 46.7484003,29.4391165 C46.8261737,28.9678232 46.9298715,28.4703468 47.0076449,27.9990534 C47.1372672,27.2921133 47.2668894,26.6113562 47.3965117,25.9044161 C47.5002095,25.3022078 47.6557563,24.6738166 47.7594541,24.0716084 Z M57.3255783,24.3334381 C57.4292761,23.8621447 57.532974,23.3908513 57.5848229,22.8671919 C57.5588984,22.1602518 57.0922582,21.5580436 56.4959957,21.296214 C56.0034311,21.0867502 55.4849419,21.0605673 54.9405284,21.1391162 C54.292417,21.2176651 53.7480034,21.5056777 53.3072877,21.9507881 L52.814723,22.4482645 C52.8665719,22.1078859 52.9184208,21.7936903 52.9961942,21.4794947 C53.0221186,21.4009458 53.0221186,21.3485799 52.8924964,21.3485799 L50.2741263,21.3485799 C50.2222774,21.3485799 50.196353,21.3747629 50.1704285,21.4533118 C50.0926551,21.8722392 50.0148818,22.2649837 49.9371084,22.6839112 C49.8334106,23.1813875 49.7556372,23.6526809 49.6519394,24.1501573 C49.5482416,24.7785485 49.4445437,25.3807567 49.3149215,26.0091479 C49.1593747,26.742271 49.003828,27.4753941 48.8742057,28.2347001 C48.718659,28.9678232 48.6149611,29.7271292 48.4594144,30.4602522 C48.3038677,31.1671923 48.1742454,31.8741324 48.0446231,32.5810725 C47.9927742,32.7381703 48.0705476,32.7119874 48.1483209,32.7119874 L50.6629932,32.7119874 C50.8185399,32.7381703 50.8444644,32.6596214 50.8703888,32.5287066 C50.8963133,32.2930599 50.9222377,32.0835962 50.9740866,31.8479495 C51.1296334,31.0886434 51.2851801,30.3555204 51.4148024,29.6223973 C51.5444247,28.9416402 51.6481225,28.2347001 51.7777448,27.553943 C51.8814426,26.9255518 52.0110649,26.2971606 52.1406871,25.6687694 C52.244385,25.1189271 52.2962339,24.5690848 52.5036295,24.0454254 C52.7628741,23.3908513 53.1258165,23.0242897 53.8776257,23.1028386 C54.2664925,23.1290216 54.4479637,23.3908513 54.4998126,23.7835958 C54.5516615,24.2287062 54.4479637,24.6738166 54.3701903,25.1189271 C54.2664925,25.6425864 54.1627947,26.1924287 54.0590969,26.716088 C53.9553991,27.2921133 53.8517012,27.8419556 53.7480034,28.4179809 C53.6183811,29.0463721 53.5146833,29.6485803 53.385061,30.2769715 C53.3072877,30.7744478 53.2035898,31.2719242 53.099892,31.7694006 L52.9443453,32.5548896 C52.9443453,32.6072555 52.8924964,32.7119874 53.0480431,32.7119874 L55.6923376,32.7119874 C55.770111,32.7119874 55.7960354,32.7119874 55.7960354,32.6334385 C55.8738088,32.1359621 55.9515822,31.6384857 56.05528,31.1410094 C56.1849023,30.5126182 56.2886001,29.9104099 56.4182224,29.2820187 C56.4959957,28.7845424 56.5737691,28.313249 56.6774669,27.8157726 C56.7811647,27.2921133 56.8848626,26.742271 56.9885604,26.1924287 C57.0922582,25.5640375 57.195956,24.9356463 57.3255783,24.3334381 Z M62.7956385,21.5318607 C62.821563,21.3747629 62.769714,21.3747629 62.6400918,21.3223969 L60.1254195,21.3223969 C59.9957973,21.3223969 59.9698728,21.3747629 59.9439484,21.4794947 C59.866175,21.9507881 59.7624772,22.4482645 59.6847038,22.9195579 L59.3736103,24.5690848 C59.2180636,25.3283908 59.0625169,26.0615139 58.9328946,26.8208199 C58.8291968,27.4492111 58.7254989,28.0514193 58.5958766,28.6798105 L58.2070098,30.7220819 C58.0773875,31.3504731 57.9736897,31.9788643 57.8440674,32.5810725 C57.818143,32.7119874 57.8440674,32.7381703 57.9477653,32.7381703 L60.5402108,32.7381703 C60.6179842,32.7381703 60.6439087,32.7381703 60.6698331,32.6334385 C60.7735309,32.0574132 60.9031532,31.5075709 61.006851,30.9315456 L61.3957179,28.8892743 L61.8623581,26.3757095 C62.0438293,25.5378545 62.199376,24.6738166 62.3549227,23.8359617 C62.484545,23.0766557 62.6400918,22.2911667 62.7956385,21.5318607 Z M71.6618024,26.3495265 C71.7914247,25.7211353 71.921047,25.0665611 71.921047,24.411987 C71.9988203,23.8883276 72.0506692,23.3908513 71.921047,22.8671919 C71.7914247,22.2388007 71.4025578,21.7936903 70.8322198,21.5318607 C70.3137307,21.296214 69.7433927,21.1914821 69.1730546,21.1652991 C68.4471699,21.1129332 67.7212851,21.1129332 67.0213248,21.296214 C66.1398933,21.5318607 65.3880841,21.9769711 64.869595,22.7624601 C64.5066526,23.3123024 64.2733325,23.9668765 64.1696347,24.6476337 L66.7102313,24.6476337 C66.9694759,24.6476337 66.9435514,24.6476337 66.9954003,24.385804 C67.0731737,24.0454254 67.1768715,23.6788639 67.3842672,23.3908513 C67.6953607,22.9457408 68.1360764,22.8933749 68.6286411,22.9457408 C68.7582633,22.9457408 68.9138101,22.9981068 69.0175079,23.1028386 C69.3545258,23.3908513 69.2767525,23.7574128 69.250828,24.1239743 C69.1989791,24.5167188 69.0952813,24.8832804 69.0434324,25.2760249 C69.0175079,25.4331227 68.965659,25.4593056 68.8360367,25.4593056 C68.343472,25.4593056 67.8768318,25.4331227 67.3842672,25.4854886 C66.9435514,25.5378545 66.5028357,25.5902205 66.0880444,25.6949523 C64.8177461,26.0353309 63.9363146,26.7946369 63.4437499,28.0252364 C63.2104298,28.6012616 63.0808075,29.2034699 63.0030341,29.8056781 C62.9252608,30.3817033 62.9252608,30.9315456 63.0548831,31.4813879 C63.2363542,32.1621451 63.6252211,32.6596214 64.2992569,32.8690852 C64.8177461,33.0523659 65.3621596,33.026183 65.9065732,32.8952681 C66.580609,32.7381703 67.1509471,32.3454258 67.6175873,31.8217665 C67.773134,31.6384857 67.9027563,31.429022 68.1101519,31.2457412 C68.058303,31.7694006 68.0064541,32.240694 67.9546052,32.7905363 C68.0323786,32.7119874 68.1101519,32.7381703 68.1879253,32.7381703 L70.443353,32.7381703 C70.4952019,32.7381703 70.5988997,32.7905363 70.5988997,32.6596214 C70.6248242,32.3977918 70.6507486,32.1359621 70.6766731,31.9003154 C70.7025975,31.5861198 70.728522,31.2457412 70.7803709,30.9315456 C70.8581443,30.4340693 70.9618421,29.9627759 71.0655399,29.4652995 L71.3766334,27.8157726 C71.4544067,27.3182963 71.584029,26.8470029 71.6618024,26.3495265 Z M10.0652953,17.1593052 C11.3615181,17.1593052 12.6577409,17.1593052 13.9280392,17.1331223 L14.083586,17.1331223 C13.5650968,18.0233431 13.0725322,18.913564 12.5540431,19.8037849 C11.8540828,21.0343843 11.128198,22.2649837 10.4282377,23.4955831 C10.3504643,23.574132 10.3763888,23.6526809 10.3763888,23.7312298 L10.3763888,29.0463721 C10.3763888,29.2296528 10.3245399,29.2820187 10.1430687,29.2820187 L5.6062889,29.2820187 C5.39889325,29.2820187 5.37296879,29.2296528 5.37296879,29.0463721 L5.37296879,23.9145106 C5.37296879,23.8359617 5.39889325,23.7574128 5.34704434,23.7050469 C5.29519543,23.4170342 5.13964869,23.1813875 5.01002641,22.9457408 C4.67300849,22.2649837 4.3100661,21.5842266 3.94712372,20.9034695 C3.45455906,19.9608827 2.9619944,18.9921129 2.46942974,18.0495261 C2.313883,17.7615135 2.15833627,17.4735008 2.00278953,17.1593052 L6.04700465,17.1593052 C6.15070247,17.1593052 6.22847584,17.1854882 6.28032475,17.2902201 C6.85066278,18.3637217 7.39507635,19.4110404 7.96541438,20.484542 L7.99133883,20.510725 C8.50982795,19.5943211 9.02831707,18.7041003 9.54680618,17.8138794 C9.65050401,17.6305986 9.75420183,17.4735008 9.8319752,17.2902201 C9.88382411,17.1854882 9.96159748,17.1593052 10.0652953,17.1593052 Z M35.0046218,23.2861194 C35.2638664,23.4432172 35.3416398,23.7050469 35.3675642,23.9930595 C35.4453376,24.5690848 35.3157153,25.14511 35.2120175,25.6949523 C35.186093,25.7473183 35.1601686,25.7996842 35.0823952,25.7996842 L32.5936474,25.7996842 C32.6973453,25.3545738 32.7751186,24.9094633 32.9306654,24.4905359 C33.0862121,24.0454254 33.2676833,23.626498 33.6565501,23.3646683 C34.0972659,23.0504727 34.6416794,23.0504727 35.0046218,23.2861194 Z M67.5398139,27.3444792 C67.9286808,27.2921133 68.3175476,27.2659303 68.7064144,27.2659303 C68.6286411,27.7372237 68.5249432,28.2085171 68.4471699,28.6536276 C68.3175476,29.3343847 68.1101519,29.9627759 67.6953607,30.5126182 C67.487965,30.8006308 67.1768715,30.9839116 66.8139292,31.0100945 C66.6843069,31.0100945 66.5546846,31.0362775 66.4250623,31.0100945 C66.0880444,30.9577286 65.9065732,30.7220819 65.8547243,30.4078863 C65.7510265,29.5962143 65.9065732,28.8107254 66.29544,28.1037853 C66.5546846,27.6324919 66.9954003,27.4230281 67.5398139,27.3444792 Z" id="Cropped/Fennia" fill="#004921" fill-rule="nonzero"></path>
    </g>
</svg>

<svg width="72" height="48" xmlns="http://www.w3.org/2000/svg"><path d="M60.877 16.662a87.513 87.513 0 0 0-.415 2.304h2.723c.077 0 .103-.026.13-.105.129-.76.258-1.518.414-2.252.026-.157-.026-.13-.13-.13h-2.514c-.156 0-.182.078-.208.183zM16.08 18.154c.026-.366.052-.759.052-1.23-.052-.603-.104-1.179-.234-1.755-.389-1.57-1.166-2.932-2.385-4.006a8.678 8.678 0 0 0-2.177-1.413 8.764 8.764 0 0 0-2.956-.734c-.596-.052-1.192.027-1.789.158-.907.183-1.762.55-2.566 1.02a9.413 9.413 0 0 0-2.126 1.807A7.861 7.861 0 0 0 .681 13.94c-.441.969-.623 1.99-.674 3.037-.026.628.026 1.23.13 1.833.103.733.336 1.44.647 2.094.311.629.7 1.205 1.167 1.755.467.55.96 1.02 1.53 1.44.388.314.83.55 1.244.785.052.026.104.053.104.131v4.11c0 .158-.052.132-.182.132H2.055c-.39-.026-.778 0-1.167 0-.104 0-.13.026-.13.13v3.221c.052.079.13.053.182.053h13.973c.052 0 .13.026.182-.053v-3.142c0-.104-.026-.157-.156-.157h-3.733c-.104 0-.156 0-.156-.13v-4.033c0-.105.052-.157.13-.183.285-.105.57-.262.856-.42.881-.523 1.685-1.177 2.333-1.989a7.652 7.652 0 0 0 1.192-2.042 8.16 8.16 0 0 0 .519-2.357zm12.884 7.305c0-.104.052-.21.052-.262.13-.602.233-1.23.363-1.859.026-.13-.026-.13-.104-.13H25.31c-.104 0-.208 0-.182-.158.13-.523.208-1.047.311-1.57.156-.76.312-1.493.441-2.252.026-.157.078-.21.234-.21h4.122c.155 0 .181-.078.207-.21.052-.366.155-.732.207-1.125.052-.367.182-.76.182-1.152-.052-.052-.13-.026-.182-.026h-7.155c-.052 0-.13-.026-.181.052-.052.262-.078.524-.13.786a8.285 8.285 0 0 1-.13.785 194.01 194.01 0 0 0-.31 1.623c-.104.576-.208 1.126-.312 1.702l-.31 1.571c-.13.681-.26 1.388-.39 2.069-.13.654-.259 1.335-.389 2.016a47.908 47.908 0 0 1-.337 1.885l-.388 2.042c-.13.576-.234 1.152-.337 1.728h2.877c.104 0 .182 0 .182-.157 0-.078 0-.157.026-.235.155-.76.31-1.493.44-2.226.156-.76.285-1.492.415-2.252.13-.654.285-1.335.389-2.016.026-.183.078-.21.233-.21h3.889c.155 0 .233-.025.233-.209zm9.177-.864c.026-.445 0-.916-.155-1.387-.13-.603-.415-1.152-.96-1.519-.57-.393-1.192-.524-1.84-.55-.389-.026-.778 0-1.167.026a5.05 5.05 0 0 0-1.633.445c-.83.393-1.4 1.048-1.84 1.86-.363.68-.597 1.413-.778 2.173-.285 1.152-.519 2.304-.596 3.482-.052.628-.052 1.257.103 1.859.156.576.441 1.1.96 1.44.492.34 1.062.497 1.659.524.544.026 1.089.052 1.633-.053.467-.078.881-.235 1.296-.419.415-.183.726-.471 1.063-.733.26-.21.467-.497.648-.785.389-.602.622-1.23.804-1.912.026-.104-.026-.104-.104-.104H34.59c-.052 0-.078.026-.104.104-.052.236-.104.498-.207.733-.156.393-.363.76-.726.995-.519.315-1.193.236-1.4-.366a2.438 2.438 0 0 1-.13-.969c.026-.34.052-.707.104-1.047l.156-.786h5.184c.078 0 .182.026.234-.052 0-.026.026-.079.026-.131.052-.419.155-.864.233-1.283.104-.524.156-1.021.181-1.545zm9.618-.523c.104-.472.182-.943.104-1.388-.13-.707-.596-1.178-1.27-1.388-.44-.157-.908-.157-1.374-.078a2.822 2.822 0 0 0-1.815 1.047c-.078.105-.181.183-.285.314.104-.419.156-.785.233-1.152 0-.026-.026-.026-.026-.026H40.63c-.13 0-.155.078-.155.157-.026.183-.052.34-.078.524a48.08 48.08 0 0 0-.337 1.675l-.311 1.65c-.104.497-.182.969-.285 1.466-.104.629-.234 1.23-.337 1.86-.13.628-.234 1.23-.363 1.858l-.39 2.042c-.025.105 0 .131.104.131h2.593c.104 0 .13-.026.155-.13.052-.158.078-.34.104-.524l.311-1.65c.104-.55.208-1.126.311-1.675.104-.55.208-1.126.311-1.676.078-.471.156-.969.26-1.44.13-.576.181-1.152.415-1.702.181-.393.414-.707.855-.812.337-.052.648-.078.907.21.156.157.182.366.208.576.026.445-.078.89-.156 1.335-.103.628-.233 1.23-.363 1.859l-.31 1.65c-.156.759-.286 1.492-.442 2.251-.103.55-.207 1.126-.31 1.702h2.721c.104 0 .104-.052.13-.13.026-.21.078-.393.104-.603.155-.864.31-1.702.466-2.566.078-.471.182-.969.26-1.44.13-.707.259-1.388.389-2.095.103-.602.259-1.23.362-1.832zm9.567.261c.103-.47.207-.942.259-1.466-.026-.707-.493-1.309-1.089-1.57-.493-.21-1.011-.236-1.555-.158a2.715 2.715 0 0 0-1.634.812l-.492.497c.052-.34.103-.654.181-.969.026-.078.026-.13-.104-.13h-2.618c-.052 0-.078.026-.104.104-.077.42-.155.812-.233 1.23-.104.498-.181.97-.285 1.467-.104.629-.207 1.23-.337 1.86a56.227 56.227 0 0 0-.44 2.225c-.156.733-.26 1.492-.416 2.225a61.188 61.188 0 0 0-.414 2.121c-.052.157.026.131.103.131h2.515c.156.026.181-.052.207-.183a6.16 6.16 0 0 1 .104-.681c.156-.76.311-1.492.44-2.226.13-.68.234-1.387.364-2.068.103-.628.233-1.257.363-1.885.103-.55.155-1.1.363-1.624.259-.654.622-1.02 1.374-.942.388.026.57.288.622.68.052.446-.052.89-.13 1.336-.104.524-.207 1.073-.31 1.597-.105.576-.208 1.126-.312 1.702-.13.628-.233 1.23-.363 1.859a30.12 30.12 0 0 1-.285 1.492l-.156.786c0 .052-.052.157.104.157h2.644c.078 0 .104 0 .104-.079.078-.497.156-.995.26-1.492.129-.628.233-1.23.362-1.859.078-.497.156-.969.26-1.466.103-.524.207-1.074.31-1.624.104-.628.208-1.256.338-1.859zm5.47-2.801c.026-.157-.026-.157-.156-.21h-2.515c-.13 0-.155.053-.181.157-.078.472-.182.97-.26 1.44l-.31 1.65c-.156.76-.311 1.493-.441 2.252-.104.628-.208 1.23-.337 1.859l-.389 2.042c-.13.628-.233 1.257-.363 1.86-.026.13 0 .156.104.156h2.592c.078 0 .104 0 .13-.105.104-.576.233-1.125.337-1.701l.389-2.043.466-2.513c.182-.838.337-1.702.493-2.54.13-.76.285-1.545.44-2.304zm8.866 4.818c.13-.629.259-1.283.259-1.938.078-.524.13-1.021 0-1.545-.13-.628-.518-1.073-1.089-1.335-.518-.236-1.089-.34-1.659-.367-.726-.052-1.452-.052-2.152.131-.881.236-1.633.681-2.151 1.466a4.724 4.724 0 0 0-.7 1.886h2.54c.26 0 .234 0 .285-.262.078-.34.182-.707.39-.995.31-.445.751-.498 1.244-.445.13 0 .285.052.389.157.337.288.259.654.233 1.021-.052.393-.156.76-.208 1.152-.025.157-.077.183-.207.183-.493 0-.96-.026-1.452.026-.44.053-.881.105-1.296.21-1.27.34-2.152 1.1-2.644 2.33a7.16 7.16 0 0 0-.441 1.78c-.078.577-.078 1.127.052 1.676.181.681.57 1.179 1.244 1.388.519.183 1.063.157 1.608.026.674-.157 1.244-.55 1.71-1.073.156-.184.286-.393.493-.576-.052.523-.104.995-.155 1.545.077-.079.155-.053.233-.053h2.255c.052 0 .156.053.156-.078.026-.262.052-.524.078-.76.026-.314.052-.654.103-.968.078-.498.182-.97.286-1.467l.31-1.65c.078-.497.208-.968.286-1.465zm-61.597-9.19c1.297 0 2.593 0 3.863-.027h.156c-.519.89-1.011 1.78-1.53 2.67-.7 1.231-1.426 2.462-2.126 3.693-.078.078-.052.157-.052.235v5.315c0 .184-.051.236-.233.236H5.606c-.207 0-.233-.052-.233-.236v-5.131c0-.079.026-.158-.026-.21-.052-.288-.207-.524-.337-.76-.337-.68-.7-1.36-1.063-2.042-.492-.942-.985-1.91-1.478-2.853a27.696 27.696 0 0 1-.466-.89h4.044c.104 0 .181.025.233.13.57 1.074 1.115 2.121 1.685 3.195l.026.026c.519-.917 1.037-1.807 1.556-2.697.104-.183.207-.34.285-.524.052-.105.13-.13.233-.13zm24.94 6.126c.259.157.337.419.363.707.077.576-.052 1.152-.156 1.702-.026.052-.052.105-.13.105h-2.488c.103-.445.181-.89.337-1.31.155-.445.337-.864.726-1.125.44-.315.985-.315 1.348-.079zm32.535 4.058a8.732 8.732 0 0 1 1.166-.078c-.077.471-.181.943-.259 1.388-.13.68-.337 1.309-.752 1.859a1.179 1.179 0 0 1-.881.497c-.13 0-.26.026-.389 0-.337-.052-.518-.288-.57-.602a3.738 3.738 0 0 1 .44-2.304c.26-.472.7-.681 1.245-.76z" fill="#004921"/></svg>
